icons/editor/list-bullets.svg

<svg width="32" height="32" viewBox="0 0 32 32" fill="none" xmlns="http://www.w3.org/2000/svg">
<path fill-rule="evenodd" clip-rule="evenodd" d="M7 9.5C8.38071 9.5 9.5 8.38071 9.5 7C9.5 5.61929 8.38071 4.5 7 4.5C5.61929 4.5 4.5 5.61929 4.5 7C4.5 8.38071 5.61929 9.5 7 9.5ZM28 8H14V6H28V8ZM14 17H28V15H14V17ZM14 26H28V24H14V26ZM7 27.5C8.38071 27.5 9.5 26.3807 9.5 25C9.5 23.6193 8.38071 22.5 7 22.5C5.61929 22.5 4.5 23.6193 4.5 25C4.5 26.3807 5.61929 27.5 7 27.5ZM9.5 16C9.5 17.3807 8.38071 18.5 7 18.5C5.61929 18.5 4.5 17.3807 4.5 16C4.5 14.6193 5.61929 13.5 7 13.5C8.38071 13.5 9.5 14.6193 9.5 16Z" fill="black"/>
</svg>

<svg width="32" height="32" viewBox="0 0 32 32" xmlns="http://www.w3.org/2000/svg">
    <path fill-rule="evenodd" d="M7 9.5a2.5 2.5 0 100-5 2.5 2.5 0 000 5zM28 8H14V6h14v2zm-14 9h14v-2H14v2zm0 9h14v-2H14v2zm-7 1.5a2.5 2.5 0 100-5 2.5 2.5 0 000 5zM9.5 16a2.5 2.5 0 11-5 0 2.5 2.5 0 015 0z"/>
</svg>
